X:1
T:Bold General Wolfe
M:4/2
L:1/4
K:Eb
 B,2|
M:3/2
 E E E2 G, A,|
M:4/2
 B, B, B,3 F G A|
M:6/4
 B B2 E D E| C3 G A B| c2 A G F B| B3 B A G|
M:4/2
 F3/2- G/2 A3 B G E|
M:3/2
 F3/2- D/2 B,2 E C|
M:4/2
 D3/2 E/2 F G E4|
